icons/system-cursor-arrow.svg

<svg viewBox="0 0 20 20"
     fill="currentColor"
     xmlns="http://www.w3.org/2000/svg">
    <g id="cursor-arrow">
        <g id="Vector">
            <path d="M13.9231 16.0296C14.0985 16.4505 13.9299 18.0447 13 18.4142C12.0701 18.7837 10.882 18.4142 10.882 18.4142L8.72605 14.1024L5 17.8284V1L16.4142 12.4142H12.1615C12.3702 12.8144 13.7003 15.4948 13.9231 16.0296Z"
                  fill="white" />
            <path fill-rule="evenodd"
                  clip-rule="evenodd"
                  d="M6 3.41421V15.4142L9 12.4142L11.5 17.4142C11.5 17.4142 12.1763 17.63 12.5 17.4142C12.8237 17.1984 13.1457 16.7638 13 16.4142C12.3123 14.7638 10.5 11.4142 10.5 11.4142H14L6 3.41421Z"
                  fill="#222124" />
        </g>
    </g>
</svg>

<svg xmlns="http://www.w3.org/2000/svg" fill="currentColor" viewBox="0 0 20 20"><path fill="#fff" d="M13.923 16.03c.175.42.007 2.015-.923 2.384-.93.37-2.118 0-2.118 0l-2.156-4.312L5 17.828V1l11.414 11.414h-4.253c.21.4 1.54 3.08 1.762 3.616"/><path fill="#222124" fill-rule="evenodd" d="M6 3.414v12l3-3 2.5 5s.676.216 1 0 .646-.65.5-1c-.688-1.65-2.5-5-2.5-5H14z" clip-rule="evenodd"/></svg>
